public/Icons/login.svg

<svg width="24" height="24" viewBox="0 0 24 24" fill="none" xmlns="http://www.w3.org/2000/svg">
<path d="M16.3658 13.25C15.9516 13.25 15.6158 13.5858 15.6158 14C15.6158 14.4142 15.9516 14.75 16.3658 14.75V13.25ZM16.7083 14L16.7086 13.25H16.7083V14ZM19.6045 16.628L18.86 16.7185L18.86 16.7187L19.6045 16.628ZM19.985 19.752L20.7295 19.6615L20.7295 19.6613L19.985 19.752ZM18.0533 22L18.0534 21.25H18.0533V22ZM4.94674 22V21.25H4.94658L4.94674 22ZM3.01502 19.752L3.75954 19.8425L3.75955 19.8425L3.01502 19.752ZM3.39455 16.628L2.65004 16.5375L2.65003 16.5375L3.39455 16.628ZM6.29262 14L6.29233 14.75H6.29262V14ZM6.6342 14.75C7.04842 14.75 7.3842 14.4142 7.3842 14C7.3842 13.5858 7.04842 13.25 6.6342 13.25V14.75ZM16.2486 7C16.2486 9.34721 14.3458 11.25 11.9986 11.25V12.75C15.1743 12.75 17.7486 10.1756 17.7486 7H16.2486ZM11.9986 11.25C9.65143 11.25 7.74864 9.34721 7.74864 7H6.24864C6.24864 10.1756 8.823 12.75 11.9986 12.75V11.25ZM7.74864 7C7.74864 4.65279 9.65143 2.75 11.9986 2.75V1.25C8.823 1.25 6.24864 3.82436 6.24864 7H7.74864ZM11.9986 2.75C14.3458 2.75 16.2486 4.65279 16.2486 7H17.7486C17.7486 3.82436 15.1743 1.25 11.9986 1.25V2.75ZM16.3658 14.75H16.7083V13.25H16.3658V14.75ZM16.7081 14.75C17.2308 14.7502 17.7388 14.9463 18.136 15.3067L19.144 14.1959C18.4746 13.5885 17.6088 13.2503 16.7086 13.25L16.7081 14.75ZM18.136 15.3067C18.5337 15.6676 18.7931 16.169 18.86 16.7185L20.349 16.5375C20.2394 15.6361 19.8128 14.8028 19.144 14.1959L18.136 15.3067ZM18.86 16.7187L19.2405 19.8427L20.7295 19.6613L20.349 16.5373L18.86 16.7187ZM19.2405 19.8425C19.2622 20.0213 19.2466 20.2027 19.1951 20.3743L20.6316 20.806C20.7429 20.4356 20.7762 20.0455 20.7295 19.6615L19.2405 19.8425ZM19.1951 20.3743C19.1435 20.5458 19.0575 20.7027 18.9438 20.835L20.0815 21.8126C20.3332 21.5197 20.5203 21.1764 20.6316 20.806L19.1951 20.3743ZM18.9438 20.835C18.8302 20.9672 18.6917 21.0717 18.5384 21.1427L19.169 22.5037C19.519 22.3416 19.8297 22.1056 20.0815 21.8126L18.9438 20.835ZM18.5384 21.1427C18.3852 21.2137 18.2199 21.25 18.0534 21.25L18.0531 22.75C18.4386 22.7501 18.8191 22.6659 19.169 22.5037L18.5384 21.1427ZM18.0533 21.25H4.94674V22.75H18.0533V21.25ZM4.94658 21.25C4.78006 21.25 4.61481 21.2137 4.46158 21.1427L3.83096 22.5037C4.18094 22.6659 4.56142 22.7501 4.94691 22.75L4.94658 21.25ZM4.46158 21.1427C4.30828 21.0717 4.16983 20.9672 4.0562 20.835L2.91854 21.8126C3.17028 22.1056 3.48103 22.3416 3.83096 22.5037L4.46158 21.1427ZM4.0562 20.835C3.94253 20.7027 3.85647 20.5458 3.80492 20.3743L2.36838 20.806C2.47971 21.1764 2.66684 21.5197 2.91854 21.8126L4.0562 20.835ZM3.80492 20.3743C3.75336 20.2027 3.73779 20.0213 3.75954 19.8425L2.27051 19.6615C2.2238 20.0455 2.25707 20.4356 2.36838 20.806L3.80492 20.3743ZM3.75955 19.8425L4.13908 16.7185L2.65003 16.5375L2.2705 19.6615L3.75955 19.8425ZM4.13907 16.7185C4.20593 16.1688 4.46554 15.6671 4.86357 15.3062L3.85595 14.195C3.1866 14.802 2.7597 15.6357 2.65004 16.5375L4.13907 16.7185ZM4.86357 15.3062C5.26108 14.9457 5.76938 14.7498 6.29233 14.75L6.29292 13.25C5.39228 13.2496 4.52584 13.5876 3.85595 14.195L4.86357 15.3062ZM6.29262 14.75H6.6342V13.25H6.29262V14.75Z" fill="#202020"/>
</svg>

<svg width="24" height="24" fill="none" xmlns="http://www.w3.org/2000/svg"><path d="M16.366 13.25a.75.75 0 0 0 0 1.5v-1.5Zm.342.75v-.75.75Zm2.897 2.628-.745.09.745-.09Zm.38 3.124.745-.09-.745.09ZM18.053 22v-.75.75ZM4.947 22v-.75.75Zm-1.932-2.248.745.09-.745-.09Zm.38-3.124-.745-.09.745.09ZM6.293 14v.75V14Zm.341.75a.75.75 0 0 0 0-1.5v1.5ZM16.25 7a4.25 4.25 0 0 1-4.25 4.25v1.5A5.75 5.75 0 0 0 17.749 7h-1.5Zm-4.25 4.25A4.25 4.25 0 0 1 7.749 7h-1.5a5.75 5.75 0 0 0 5.75 5.75v-1.5ZM7.749 7a4.25 4.25 0 0 1 4.25-4.25v-1.5A5.75 5.75 0 0 0 6.249 7h1.5Zm4.25-4.25A4.25 4.25 0 0 1 16.249 7h1.5a5.75 5.75 0 0 0-5.75-5.75v1.5Zm4.367 12h.342v-1.5h-.342v1.5Zm.342 0c.523 0 1.03.196 1.428.557l1.008-1.111a3.625 3.625 0 0 0-2.435-.946v1.5Zm1.428.557c.398.36.657.862.724 1.411l1.489-.18a3.776 3.776 0 0 0-1.205-2.342l-1.008 1.11Zm.724 1.412.38 3.124 1.49-.182-.381-3.124-1.489.182Zm.38 3.123c.022.18.007.36-.045.532l1.437.432c.11-.37.144-.76.098-1.145l-1.49.181Zm-.045.532a1.266 1.266 0 0 1-.251.461l1.137.978c.252-.293.44-.637.55-1.007l-1.436-.432Zm-.251.461a1.2 1.2 0 0 1-.406.308l.631 1.36a2.7 2.7 0 0 0 .912-.69l-1.137-.978Zm-.406.308a1.153 1.153 0 0 1-.485.107v1.5a2.65 2.65 0 0 0 1.116-.246l-.63-1.361Zm-.485.107H4.947v1.5h13.106v-1.5Zm-13.106 0c-.167 0-.332-.036-.485-.107l-.631 1.36c.35.163.73.247 1.116.247v-1.5Zm-.485-.107a1.2 1.2 0 0 1-.406-.308l-1.137.978a2.7 2.7 0 0 0 .912.69l.63-1.36Zm-.406-.308c-.113-.132-.2-.29-.251-.46l-1.437.431c.112.37.299.714.55 1.007l1.138-.978Zm-.251-.46a1.303 1.303 0 0 1-.045-.532l-1.49-.181c-.046.384-.013.774.098 1.144l1.437-.432Zm-.045-.532.38-3.125-1.49-.18-.38 3.123 1.49.181Zm.38-3.125c.066-.55.326-1.05.724-1.412l-1.008-1.111a3.777 3.777 0 0 0-1.206 2.343l1.49.18Zm.724-1.412c.397-.36.905-.556 1.428-.556v-1.5c-.9 0-1.766.338-2.436.945l1.008 1.111Zm1.429-.556h.341v-1.5h-.341v1.5Z" fill="#202020"/></svg>
